actions/22x22-light/hidemouse.svg

<svg viewBox="0 0 22 22" xmlns="http://www.w3.org/2000/svg"><path d="m5.3847656 3.9238281a.94223107.94223107 0 0 0 -.9433594.9433594.94223107.94223107 0 0 0  .9433594.9414063.94223107.94223107 0 0 0  .9414063-.9414063.94223107.94223107 0 0 0 -.9414063-.9433594zm.9414063 2.828125.0058593 12.2480469 3.6699218-4.427734 5.746094-.283204z" fill="#4d4d4d"/><path d="m15.203125 3c-.427363 0-.822715.1057742-1.183594.3164062-.360917.2105944-.64679.4965052-.857422.8574219-.210669.3609168-.314453.7543155-.314453 1.1816407 0 .4273627.103859.8206862.314453 1.1816406.210632.3608415.496505.6467898.857422.8574218.360917.2106321.756231.3164063 1.183594.3164063s.820762-.1057742 1.181641-.3164063c.360879-.2105943.646789-.4965427.857422-.8574218.210594-.3609168.316406-.7543155.316406-1.1816406 0-.4273628-.10585-.8207616-.316406-1.1816407-.210633-.3608791-.496543-.6467898-.857422-.8574219-.360955-.210632-.754241-.3164062-1.181641-.3164062zm-.693359 1.1875c.053156 0 .097867.0197426.136718.0585938l.556641.5546874.554687-.5546874c.038776-.0388512.085516-.0585938.138672-.0585938.055228 0 .101774.0197426.140625.0585938l.275391.2753906c.038851.0388511.058594.0853976.058594.140625 0 .0531568-.019743.0998583-.058594.1386718l-.554688.5546876.554688.5546874c.038851.0388136.058594.0855151.058594.1386719 0 .0551898-.019743.1018115-.058594.140625l-.275391.2773438c-.038851.0388511-.085397.0566406-.140625.0566406-.053156 0-.099896-.0177895-.138672-.0566406l-.554687-.5566407-.556641.5566407c-.038851.0388511-.083562.0566406-.136718.0566406-.055228 0-.101774-.0177895-.140625-.0566406l-.277344-.2773438c-.038851-.0388135-.058594-.0854352-.058594-.140625 0-.0531568.019743-.0998583.058594-.1386719l.554687-.5546874-.554687-.5546876c-.038851-.0388135-.058594-.085515-.058594-.1386718 0-.0552274.019743-.1017739.058594-.140625l.277344-.2753906c.038851-.0388512.085397-.0585938.140625-.0585938z" fill="#da4453"/></svg>

<svg xmlns="http://www.w3.org/2000/svg" viewBox="0 0 22 22">
  <defs id="defs3051">
    <style type="text/css" id="current-color-scheme">
      .ColorScheme-NegativeText {
        color:#da4453;
      }
      .ColorScheme-Text {
        color:#4d4d4d
      }
      </style>
  </defs>
 <path 
     style="fill:currentColor;fill-opacity:1;stroke:none"      
	 class="ColorScheme-Text"
     d="M 5.3847656 3.9238281 A 0.94223107 0.94223107 0 0 0 4.4414062 4.8671875 A 0.94223107 0.94223107 0 0 0 5.3847656 5.8085938 A 0.94223107 0.94223107 0 0 0 6.3261719 4.8671875 A 0.94223107 0.94223107 0 0 0 5.3847656 3.9238281 z M 6.3261719 6.7519531 L 6.3320312 19 L 10.001953 14.572266 L 15.748047 14.289062 L 6.3261719 6.7519531 z "
     />
 <path 
     style="fill:currentColor;fill-opacity:1;stroke:none"      
	 class="ColorScheme-NegativeText"
     d="M 15.203125 3 C 14.775762 3 14.38041 3.1057742 14.019531 3.3164062 C 13.658614 3.5270006 13.372741 3.8129114 13.162109 4.1738281 C 12.95144 4.5347449 12.847656 4.9281436 12.847656 5.3554688 C 12.847656 5.7828315 12.951515 6.176155 13.162109 6.5371094 C 13.372741 6.8979509 13.658614 7.1838992 14.019531 7.3945312 C 14.380448 7.6051633 14.775762 7.7109375 15.203125 7.7109375 C 15.630488 7.7109375 16.023887 7.6051633 16.384766 7.3945312 C 16.745645 7.1839369 17.031555 6.8979885 17.242188 6.5371094 C 17.452782 6.1761926 17.558594 5.7827939 17.558594 5.3554688 C 17.558594 4.928106 17.452744 4.5347072 17.242188 4.1738281 C 17.031555 3.812949 16.745645 3.5270383 16.384766 3.3164062 C 16.023811 3.1057742 15.630525 3 15.203125 3 z M 14.509766 4.1875 C 14.562922 4.1875 14.607633 4.2072426 14.646484 4.2460938 L 15.203125 4.8007812 L 15.757812 4.2460938 C 15.796588 4.2072426 15.843328 4.1875 15.896484 4.1875 C 15.951712 4.1875 15.998258 4.2072426 16.037109 4.2460938 L 16.3125 4.5214844 C 16.351351 4.5603355 16.371094 4.606882 16.371094 4.6621094 C 16.371094 4.7152662 16.351351 4.7619677 16.3125 4.8007812 L 15.757812 5.3554688 L 16.3125 5.9101562 C 16.351351 5.9489698 16.371094 5.9956713 16.371094 6.0488281 C 16.371094 6.1040179 16.351351 6.1506396 16.3125 6.1894531 L 16.037109 6.4667969 C 15.998258 6.505648 15.951712 6.5234375 15.896484 6.5234375 C 15.843328 6.5234375 15.796588 6.505648 15.757812 6.4667969 L 15.203125 5.9101562 L 14.646484 6.4667969 C 14.607633 6.505648 14.562922 6.5234375 14.509766 6.5234375 C 14.454538 6.5234375 14.407992 6.505648 14.369141 6.4667969 L 14.091797 6.1894531 C 14.052946 6.1506396 14.033203 6.1040179 14.033203 6.0488281 C 14.033203 5.9956713 14.052946 5.9489698 14.091797 5.9101562 L 14.646484 5.3554688 L 14.091797 4.8007812 C 14.052946 4.7619677 14.033203 4.7152662 14.033203 4.6621094 C 14.033203 4.606882 14.052946 4.5603355 14.091797 4.5214844 L 14.369141 4.2460938 C 14.407992 4.2072426 14.454538 4.1875 14.509766 4.1875 z "
     />
</svg>
